!!!OTL: Maria Königin (2-11) S. 41
!!!id: P0884
**kern
*clefG2
*k[b-]
*B-:
{4f
=1
4.b-
8a
4b-
8dd
8cc
=2
4b-
4a
4b-}
=3
{8b-
8cc
=4
4dd
4dd
4cc
4b-
=5
4cc}
2r
=6
{4cc
=7
4cc
8b-
8cc
4dd
4cc
=8
4b-
4g
4a-}
=9
{4b-
=10
4f
4g
4a-
4g
=11
4f}
2r
==
*-
!!!minrhy: 8
!!!meters: 4/4 ]  ZZ[4
!!!cut: Maria Königin (2-11) S. 41
!!!reg: Lothringen
!!!trd: PINCK, Louis: Verklingende Weisen, Bd 2, Metz 1928
!!!rhy1: X_  X_.XX_XX  X_X_X_
!!!rhy2: XX  X_X_X_X_  X_0__
!!!key: P0884  08 Bb 4/4 ]  ZZ[4
!!!mod: HEPTATONIK DUR ?]  AMBITUS[6
!!!kad: 12-7b-5
!!!akz: 1111_322_231-7b_-5-7b-5_
!!!fot: 'a__b__c__d__
!!!for: 'a__b__c__bv_
!!!fok: '^a_/__\__Sd_
!! PHRAS[AUFTAKTIG]
!!!fkt: geistliche, religiöse Lieder
!! LOTH VKL
!! PR[40] 2K[10] 2G[13] 3K[2] 3G[0] 4A[0] 4Ü[0] 5A[2] 6K[0] 6G[0]
!! 7K[2] 7G[0] 8A[0] MEHR[0] SI[29] ABS[48] SR[23] SP[6]
!! ST[16] 2k[8] 2g[13] 3k[8] 3g[2] 4d[0] 4ü[0] 5d[0] 6k[0] 6g[0]
!! 7k[0] 7g[0] 8d[0] mehr[0] si[31] dm[-2] sr[21] sp[10]
!! 1F[4] 2F[71] 3F[16] 4F[0] LF[0] 2P[0] 3P[8] 4P[0] TRI[0] DF[4] AB[49]
!! TF[0] U3K[0] U3[0] U4[0] U4Ü[0] U5[8] U6K[0] U6[2] U7K[0] U7[6]
!! N1[14] N2K[0] N2[14] N3K[0] N3[22] N4[24] N4Ü[0] N5[8] N6K[0] N6[0]
!!!n7k: 0] N7[0] O1[0] O2K[0] O2[0] O3K[0] O3[0] HÖ[0
